images_sukapura_svg/cmd/lc_strikeout.svg

<svg viewBox="0 0 24 24" xmlns="http://www.w3.org/2000/svg"><g fill="#69696e"><rect height="1" ry=".464045" width="20" x="2" y="11"/><path d="m8.984375 5.9472656v4.0527344h1.242187c.307929-.4414205.740945-.6757814 1.316407-.6757812.521658 0 .921254.1956952 1.199219.5878906.018799.0265264.031307.0598646.048828.0878906h1.158203c-.100004-.2661064-.220251-.5134558-.378907-.7226562-.426463-.5673507-1.015505-.8496094-1.765624-.8496094-.750123 0-1.337207.2636955-1.763672.7929687v-3.2734375zm9.792969 2.4550782c-.563543 0-1.053708.1297468-1.46875.3886718-.411234.2589251-.726418.6214941-.947266 1.0898438-.017472.0370519-.022964.0812486-.039062.1191406h1.113281c.030043-.0492519.055852-.1038509.089844-.1484375.297002-.3883876.715064-.5820313 1.251953-.5820313.399811 0 .735511.1297468 1.005859.3886719.108813.1012552.191276.2177429.261719.3417969h.955078.119141c-.117263-.3767041-.316388-.7055936-.617188-.9765625-.456926-.4150416-1.031604-.6210937-1.724609-.6210937zm-14.0332034.0253906c-.4493112 0-.8613168.08246-1.2382812.25-.3731566.1675397-.6717302.3961602-.8925782.6855468-.1562292.205565-.2359137.4194272-.2792968.6367188h1.0644531c.056573-.1625309.1653815-.3082662.3359375-.4355469.2551174-.190386.5703012-.2871094.9472656-.2871093.4302725-.0000002.7557147.1111834.9765625.3320312.1121846.1102504.1923791.2412144.2460938.390625h1.0957031c-.0832149-.4224213-.276634-.7672134-.5820312-1.0351562-.4036186-.3579261-.9617843-.5371094-1.6738282-.5371094zm-2.5820312 4.5722656c-.0000089.00273 0 .005077 0 .007812 0 .529276.1955968.967951.5839844 1.314454.3921953.342694.8927177.513672 1.5019531.513672.6815822 0 1.2666165-.25539 1.7578125-.765626.038077.312236.087514.528544.1484375.650391h1.109375v-.091797c-.1446934-.335076-.2167969-.786165-.2167969-1.353515v-.275391h-1.0644531c-.1336853.269005-.345737.489203-.6386719.658203-.2970022.171348-.6101346.257813-.9414062.257813-.3465028 0-.6307146-.09272-.8515626-.279297-.1857913-.156962-.2750251-.377226-.3046874-.636719zm6.8222656 0v1.720703h.9707031l.0507809-.712891c.426465.552121 1.029965.828124 1.810547.828126.731083 0 1.313967-.286264 1.748047-.857422.212229-.281111.370227-.609025.478516-.978516h-1.115235c-.054255.129173-.117892.247286-.191406.349609-.281771.392196-.675216.589844-1.18164.589844-.672056 0-1.167924-.317021-1.492188-.939453zm7.240234 0c.123585.371831.306023.696502.546875.970703.498812.559734 1.170213.839844 2.011719.839844.41885-.000001.814344-.094769 1.1875-.285156.376964-.190386.677688-.445776.902344-.765625.170195-.242313.262353-.49757.314453-.759766h-.1875-.808594c-.070672.233272-.210375.435568-.419922.605469-.281771.228464-.611316.341797-.988281.341797-.544504 0-.964618-.191592-1.257812-.576172-.083485-.109506-.153217-.235085-.212891-.371094z"/></g></svg>

<?xml version="1.0" encoding="UTF-8" standalone="no"?>
<svg
   xmlns:dc="http://purl.org/dc/elements/1.1/"
   xmlns:cc="http://creativecommons.org/ns#"
   xmlns:rdf="http://www.w3.org/1999/02/22-rdf-syntax-ns#"
   xmlns:svg="http://www.w3.org/2000/svg"
   xmlns="http://www.w3.org/2000/svg"
   xmlns:sodipodi="http://sodipodi.sourceforge.net/DTD/sodipodi-0.dtd"
   xmlns:inkscape="http://www.inkscape.org/namespaces/inkscape"
   viewBox="0 0 24 24"
   version="1.1"
   id="svg10"
   sodipodi:docname="lc_strikeout.svg"
   inkscape:export-filename="/home/rizmut/Dokumen/Rizmut/Github/libreoffice-style-colibrex/images_colibrex/cmd/lc_strikeout.png"
   inkscape:export-xdpi="96"
   inkscape:export-ydpi="96"
   inkscape:version="0.92.3 (unknown)">
  <metadata
     id="metadata16">
    <rdf:RDF>
      <cc:Work
         rdf:about="">
        <dc:format>image/svg+xml</dc:format>
        <dc:type
           rdf:resource="http://purl.org/dc/dcmitype/StillImage" />
      </cc:Work>
    </rdf:RDF>
  </metadata>
  <defs
     id="defs14" />
  <sodipodi:namedview
     pagecolor="#ffffff"
     bordercolor="#666666"
     borderopacity="1"
     objecttolerance="10"
     gridtolerance="10"
     guidetolerance="10"
     inkscape:pageopacity="0"
     inkscape:pageshadow="2"
     inkscape:window-width="1366"
     inkscape:window-height="706"
     id="namedview12"
     showgrid="true"
     inkscape:snap-global="true"
     inkscape:zoom="13.906433"
     inkscape:cx="20.918125"
     inkscape:cy="3.0897809"
     inkscape:window-x="0"
     inkscape:window-y="0"
     inkscape:window-maximized="1"
     inkscape:current-layer="svg10">
    <inkscape:grid
       type="xygrid"
       id="grid823" />
  </sodipodi:namedview>
  <g
     fill="#696969"
     id="g8"
     style="fill:#69696e;fill-opacity:1">
    <rect
       height="1"
       ry=".464045"
       width="20"
       x="2"
       y="11"
       id="rect2"
       style="fill:#69696e;fill-opacity:1" />
  </g>
  <path
     style="font-style:normal;font-variant:normal;font-weight:normal;font-stretch:normal;font-size:medium;line-height:1.25;font-family:roboto;-inkscape-font-specification:roboto;letter-spacing:0px;word-spacing:0px;fill:#69696e;fill-opacity:1;stroke:none;stroke-width:0.29243302"
     d="M 8.984375 5.9472656 L 8.984375 10 L 10.226562 10 C 10.534491 9.5585795 10.967507 9.3242186 11.542969 9.3242188 C 12.064627 9.3242188 12.464223 9.519914 12.742188 9.9121094 C 12.760987 9.9386358 12.773495 9.971974 12.791016 10 L 13.949219 10 C 13.849215 9.7338936 13.728968 9.4865442 13.570312 9.2773438 C 13.143849 8.7099931 12.554807 8.4277344 11.804688 8.4277344 C 11.054565 8.4277344 10.467481 8.6914299 10.041016 9.2207031 L 10.041016 5.9472656 L 8.984375 5.9472656 z M 18.777344 8.4023438 C 18.213801 8.4023438 17.723636 8.5320906 17.308594 8.7910156 C 16.89736 9.0499407 16.582176 9.4125097 16.361328 9.8808594 C 16.343856 9.9179113 16.338364 9.962108 16.322266 10 L 17.435547 10 C 17.46559 9.9507481 17.491399 9.8961491 17.525391 9.8515625 C 17.822393 9.4631749 18.240455 9.2695312 18.777344 9.2695312 C 19.177155 9.2695312 19.512855 9.399278 19.783203 9.6582031 C 19.892016 9.7594583 19.974479 9.875946 20.044922 10 L 21 10 L 21.119141 10 C 21.001878 9.6232959 20.802753 9.2944064 20.501953 9.0234375 C 20.045027 8.6083959 19.470349 8.4023438 18.777344 8.4023438 z M 4.7441406 8.4277344 C 4.2948294 8.4277344 3.8828238 8.5101944 3.5058594 8.6777344 C 3.1327028 8.8452741 2.8341292 9.0738946 2.6132812 9.3632812 C 2.457052 9.5688462 2.3773675 9.7827084 2.3339844 10 L 3.3984375 10 C 3.4550105 9.8374691 3.563819 9.6917338 3.734375 9.5644531 C 3.9894924 9.3740671 4.3046762 9.2773437 4.6816406 9.2773438 C 5.1119131 9.2773436 5.4373553 9.3885272 5.6582031 9.609375 C 5.7703877 9.7196254 5.8505822 9.8505894 5.9042969 10 L 7 10 C 6.9167851 9.5775787 6.723366 9.2327866 6.4179688 8.9648438 C 6.0143502 8.6069177 5.4561845 8.4277344 4.7441406 8.4277344 z M 2.1621094 13 C 2.1621005 13.00273 2.1621094 13.005077 2.1621094 13.007812 C 2.1621094 13.537088 2.3577062 13.975763 2.7460938 14.322266 C 3.1382891 14.66496 3.6388115 14.835938 4.2480469 14.835938 C 4.9296291 14.835938 5.5146634 14.580548 6.0058594 14.070312 C 6.0439364 14.382548 6.0933734 14.598856 6.1542969 14.720703 L 7.2636719 14.720703 L 7.2636719 14.628906 C 7.1189785 14.29383 7.046875 13.842741 7.046875 13.275391 L 7.046875 13 L 5.9824219 13 C 5.8487366 13.269005 5.6366849 13.489203 5.34375 13.658203 C 5.0467478 13.829551 4.7336154 13.916016 4.4023438 13.916016 C 4.055841 13.916016 3.7716292 13.823296 3.5507812 13.636719 C 3.3649899 13.479757 3.2757561 13.259493 3.2460938 13 L 2.1621094 13 z M 8.984375 13 L 8.984375 14.720703 L 9.9550781 14.720703 L 10.005859 14.007812 C 10.432324 14.559933 11.035824 14.835936 11.816406 14.835938 C 12.547489 14.835938 13.130373 14.549674 13.564453 13.978516 C 13.776682 13.697405 13.93468 13.369491 14.042969 13 L 12.927734 13 C 12.873479 13.129173 12.809842 13.247286 12.736328 13.349609 C 12.454557 13.741805 12.061112 13.939453 11.554688 13.939453 C 10.882632 13.939453 10.386764 13.622432 10.0625 13 L 8.984375 13 z M 16.224609 13 C 16.348194 13.371831 16.530632 13.696502 16.771484 13.970703 C 17.270296 14.530437 17.941697 14.810547 18.783203 14.810547 C 19.202053 14.810546 19.597547 14.715778 19.970703 14.525391 C 20.347667 14.335005 20.648391 14.079615 20.873047 13.759766 C 21.043242 13.517453 21.1354 13.262196 21.1875 13 L 21 13 L 20.191406 13 C 20.120734 13.233272 19.981031 13.435568 19.771484 13.605469 C 19.489713 13.833933 19.160168 13.947266 18.783203 13.947266 C 18.238699 13.947266 17.818585 13.755674 17.525391 13.371094 C 17.441906 13.261588 17.372174 13.136009 17.3125 13 L 16.224609 13 z "
     id="path829" />
</svg>
